optimized/24/outline/map-navigation.svg

<svg viewBox="0 0 24 24" xmlns="http://www.w3.org/2000/svg" fill="currentColor" data-slot="icon">
  <g clip-path="url(#clip0_2117_12172)">
    <path d="M7.90462 3.23204C8.40538 2.93997 9.01148 2.92263 9.52681 3.18563L15.132 6.04616C15.2056 6.08373 15.2922 6.08125 15.3637 6.03953L19.3964 3.87548C20.5629 3.19513 22 4.07537 22 5.47021V16.4402C22 17.1021 21.6571 17.7121 21.1036 18.0349L16.0954 20.768C15.5946 21.06 14.9885 21.0774 14.4732 20.8144L8.868 17.9538C8.79438 17.9163 8.7078 17.9187 8.63626 17.9605L4.60358 20.1667C3.43708 20.847 2 19.9668 2 18.5719V7.60194C2 6.94011 2.34293 6.33003 2.89642 6.00721L7.90462 3.23204ZM9.75 5.04244V16.661L14.25 18.9576V7.33895L9.75 5.04244ZM8.25 16.4402V4.82423L3.62806 7.37413C3.54899 7.42024 3.5 7.5074 3.5 7.60194V18.5719C3.5 18.7712 3.7053 18.897 3.87194 18.7998L7.90462 16.5936C8.01531 16.529 8.13114 16.4779 8.25 16.4402ZM20.3719 16.668C20.451 16.6219 20.5 16.5348 20.5 16.4402V5.47021C20.5 5.27094 20.2947 5.1452 20.1281 5.24239L16.0954 7.40644C15.9847 7.471 15.8689 7.52213 15.75 7.55978V19.1758L20.3719 16.668Z"/>
  </g>
  <defs>
    <clipPath id="clip0_2117_12172">
      <rect width="24" height="24"/>
    </clipPath>
  </defs>
</svg>

<svg xmlns="http://www.w3.org/2000/svg" viewBox="0 0 24 24" fill="currentColor" data-slot="icon">
  <g clip-path="url(#a)">
    <path d="M7.905 3.232c.5-.292 1.106-.31 1.622-.046l5.605 2.86a.24.24 0 0 0 .232-.006l4.032-2.165c1.167-.68 2.604.2 2.604 1.595v10.97c0 .662-.343 1.272-.896 1.595l-5.009 2.733c-.5.292-1.106.31-1.622.046l-5.605-2.86a.24.24 0 0 0-.232.006l-4.032 2.207c-1.167.68-2.604-.2-2.604-1.595V7.602c0-.662.343-1.272.896-1.595l5.009-2.775Zm1.845 1.81v11.619l4.5 2.297V7.339l-4.5-2.297ZM8.25 16.44V4.824l-4.622 2.55a.263.263 0 0 0-.128.228v10.97c0 .2.205.325.372.228l4.033-2.206c.11-.065.226-.116.345-.154Zm12.122.228a.263.263 0 0 0 .128-.228V5.47c0-.2-.205-.325-.372-.228l-4.033 2.164a1.71 1.71 0 0 1-.345.154v11.616l4.622-2.508Z"/>
  </g>
  <defs>
    <clipPath id="a">
      <rect width="24" height="24"/>
    </clipPath>
  </defs>
</svg>
